public/assets/images/premmium.svg

<svg width="15" height="15" viewBox="0 0 15 15" fill="none" xmlns="http://www.w3.org/2000/svg">
<path fill-rule="evenodd" clip-rule="evenodd" d="M15 7.5C15 11.6422 11.6422 15 7.5 15C3.35785 15 0 11.6422 0 7.5C0 3.35785 3.35785 0 7.5 0C11.6422 0 15 3.35785 15 7.5Z" fill="#E7A100"/>
<path fill-rule="evenodd" clip-rule="evenodd" d="M11.1671 9.75445C11.1671 9.6097 11.0498 9.49232 10.905 9.49232H4.12415C3.9794 9.49232 3.86202 9.6097 3.86202 9.75445V10.3836C3.86202 10.5284 3.9794 10.6457 4.12415 10.6457H10.905C11.0498 10.6457 11.1671 10.5284 11.1671 10.3836V9.75445ZM11.807 6.33223C11.8085 6.35793 11.8066 6.38409 11.8001 6.41012L11.2233 8.71696C11.1943 8.83326 11.0901 8.91499 10.9704 8.91553L7.51012 8.93308H7.50877H4.04841C3.92808 8.93308 3.82314 8.85102 3.79409 8.73418L3.21736 6.4186C3.21077 6.39196 3.20882 6.36499 3.2105 6.33862C2.98738 6.26833 2.82507 6.05954 2.82507 5.81355C2.82507 5.50999 3.07207 5.26299 3.37563 5.26299C3.67913 5.26299 3.92613 5.50999 3.92613 5.81355C3.92613 5.98447 3.84776 6.13743 3.72507 6.23846L4.44723 6.966C4.62965 7.14983 4.8829 7.2553 5.14193 7.2553C5.44826 7.2553 5.74032 7.10981 5.92429 6.86611L7.1109 5.2938C7.01122 5.19418 6.94953 5.05656 6.94953 4.90481C6.94953 4.60124 7.1964 4.35425 7.49996 4.35425C7.80359 4.35425 8.05045 4.60124 8.05045 4.90481C8.05045 5.05198 7.99207 5.18557 7.89763 5.28452C7.8979 5.28485 7.89823 5.28526 7.89857 5.28573L9.07664 6.86234C9.26041 7.10846 9.55362 7.2553 9.86081 7.2553C10.1222 7.2553 10.3681 7.15353 10.553 6.96862L11.2796 6.24203C11.1543 6.141 11.0739 5.98656 11.0739 5.81355C11.0739 5.50999 11.3208 5.26299 11.6244 5.26299C11.928 5.26299 12.1748 5.50999 12.1748 5.81355C12.1748 6.05301 12.0209 6.25669 11.807 6.33223Z" fill="white"/>
</svg>

<svg xmlns="http://www.w3.org/2000/svg" width="15" height="15" fill="none"><path fill="#E7A100" fill-rule="evenodd" d="M15 7.5a7.5 7.5 0 1 1-15 0 7.5 7.5 0 0 1 15 0Z" clip-rule="evenodd"/><path fill="#fff" fill-rule="evenodd" d="M11.167 9.754a.262.262 0 0 0-.262-.262h-6.78a.262.262 0 0 0-.263.262v.63c0 .144.117.262.262.262h6.781a.262.262 0 0 0 .262-.262v-.63Zm.64-3.422a.258.258 0 0 1-.007.078l-.577 2.307a.262.262 0 0 1-.253.199l-3.46.017H4.05a.262.262 0 0 1-.255-.199L3.217 6.42a.263.263 0 0 1-.006-.08.551.551 0 1 1 .514-.1l.722.727c.183.184.436.29.695.29a.984.984 0 0 0 .782-.39l1.187-1.572a.551.551 0 1 1 .788-.008l1.178 1.576a.983.983 0 0 0 .784.393.973.973 0 0 0 .692-.286l.727-.727a.55.55 0 1 1 .527.09Z" clip-rule="evenodd"/></svg>
